icons/solid/eye.svg

<svg width="24" height="24" viewBox="0 0 24 24" fill="none" xmlns="http://www.w3.org/2000/svg">
<path fill-rule="evenodd" clip-rule="evenodd" d="M12 4C8.51724 4 5.93946 5.57668 4.18954 7.26191C2.44985 8.93729 1.48735 10.7552 1.18879 11.3727C0.996293 11.7708 0.996294 12.2292 1.18879 12.6273C1.48735 13.2448 2.44985 15.0627 4.18954 16.7381C5.93947 18.4233 8.51724 20 12 20C15.4828 20 18.0605 18.4233 19.8105 16.7381C21.5502 15.0627 22.5127 13.2448 22.8112 12.6273C23.0037 12.2292 23.0037 11.7708 22.8112 11.3727C22.5127 10.7552 21.5502 8.93729 19.8105 7.26191C18.0605 5.57668 15.4828 4 12 4ZM12 8C9.79086 8 8 9.79086 8 12C8 14.2091 9.79086 16 12 16C14.2091 16 16 14.2091 16 12C16 9.79086 14.2091 8 12 8ZM12 14C13.1046 14 14 13.1046 14 12C14 10.8954 13.1046 10 12 10C10.8954 10 10 10.8954 10 12C10 13.1046 10.8954 14 12 14Z" fill="currentColor"/>
</svg>

<svg width="24" height="24" fill="none" xmlns="http://www.w3.org/2000/svg"><path fill-rule="evenodd" clip-rule="evenodd" d="M12 4C8.517 4 5.94 5.577 4.19 7.262a15.088 15.088 0 00-3.001 4.11 1.435 1.435 0 000 1.255 15.089 15.089 0 003 4.111C5.94 18.423 8.518 20 12 20c3.483 0 6.06-1.577 7.81-3.262a15.086 15.086 0 003.001-4.11 1.435 1.435 0 000-1.255 15.086 15.086 0 00-3-4.111C18.06 5.577 15.483 4 12 4zm0 4a4 4 0 100 8 4 4 0 000-8zm0 6a2 2 0 100-4 2 2 0 000 4z" fill="currentColor"/></svg>
